X:1
T:Barford, CM
T:Barford, CM
T:James Stewart Geikie (1811-1883)
T:Public Domain Courtesy of the Cyber Hymnal™
C:James Stewart Geikie (1811-1883)
Z:Public Domain
Z:Courtesy of the Cyber Hymnal™
%%score ( 1 2 ) ( 3 4 )
L:1/8
Q:1/4=113
M:4/4
K:Ab
V:1 treble 
V:2 treble 
V:3 bass 
V:4 bass 
V:1
 [EA]2 | [Ec]2 [Fd]2 [EB]2 [Ee]2 | [CA]2 [EB]2 [Ec]2 [Ae]2 | (ed) [Ec]2 [FB]2 [FA]2 | %4
 (A2 G4) [CE]2 | [DF]2 (BA) G2 [CA]2 | [EB]2 [Ee]2 [Ed]2 [Ec]2 | [DF]2 (dB) [EA]2 G2 | [CA]6 |] %9
V:2
 x2 | x8 | x8 | E2 x6 | E6 x2 | x2 D2 (ED) x2 | x8 | x2 F2 x (ED) x | x6 |] %9
V:3
 [A,C]2 | A,2 [D,A,]2 [E,G,]2 [C,G,]2 | [F,A,]2 [E,G,]2 A,2 [A,C]2 | [G,B,]2 A,2 [D,D]2 [D,D]2 | %4
 (C2 B,4) [A,,A,]2 | [D,A,]2 [B,,B,]2 [E,B,]2 [F,A,]2 | G,2 [C,A,]2 [B,,G,]2 [A,,A,]2 | %7
 [D,A,]2 [B,,D]2 [E,C]2 [E,B,]2 | [A,,A,]6 |] %9
V:4
 x2 | A,2 x6 | x4 A,2 x2 | x2 A,2 x4 | E,6 x2 | x8 | (E,D,) x6 | x8 | x6 |] %9

